!!!COM: Palestrina, Giovanni Perluigi da
!!!OPR: Missa Regina coeli (1601)
!!!OTL: Kyrie
**kern	**kern	**kern	**kern
*Ibass	*Itenor	*Icalto	*Icant
!Bassus	!Tenor	!Altus	!Cantus
*clefF4	*clefGv2	*clefG2	*clefG2
*k[b-]	*k[b-]	*k[b-]	*k[b-]
*F:ion	*F:ion	*F:ion	*F:ion
*M4/2	*M4/2	*M4/2	*M4/2
=1	=1	=1	=1
0r	0r	1c	1r
.	.	1d	1f
=2	=2	=2	=2
0r	0r	1c	1g
.	.	1d	1f
=3	=3	=3	=3
0r	1r	1e	1g
.	1F	2r	1a
.	.	2f	.
=4	=4	=4	=4
0r	1G	2e	2r
.	.	2d	1b-
.	1F	1f	.
.	.	.	2a
=5	=5	=5	=5
0r	1G	2e	2g
.	.	1d	2f
.	1A	.	1e
.	.	2c#	.
=6	=6	=6	=6
0r	1B-	2d	2.d
.	.	1f	.
.	.	.	4e
.	2A	.	2f
.	2G	2e	[2g
=7	=7	=7	=7
1r	2.B-	1d	2g]
.	.	.	1f
.	4A	.	.
1C	1G	2c	.
.	.	2c	2e
=8	=8	=8	=8
1D	2r	2B-	2d
.	2F	2A	1f
1C	1G	1c	.
.	.	.	2e
=9	=9	=9	=9
1D	1F	2.A	2f
.	.	.	2a
.	.	4B-	.
1E	1G	1c	2g
.	.	.	[2cc
=10	=10	=10	=10
1F	1A	1.c	4cc]
.	.	.	4b-
.	.	.	2a
2E	2r	.	2g
2D	[2B-	2d	2f
=11	=11	=11	=11
1F	2B-]	1c	1f
.	2A	.	.
2E	2G	2r	1r
2D	2B-	[2f	.
=12	=12	=12	=12
1C	2A	2f]	0r
.	2.G	2e	.
2BB-	.	2d	.
.	4F	.	.
2AA	[2F	2c	.
=13	=13	=13	=13
1GG	2F]	2.B-	2r
.	2E	.	1b-
.	.	4c	.
1FF	4F	4d	.
.	4G	4e	.
.	4A	2f	2a
.	4B-	.	.
=14	=14	=14	=14
2r	2c	2e	2g
4BB-	1d	2d	1b-
4C	.	.	.
4D	.	2.f	.
4E	.	.	.
2F	2c	.	2a
.	.	4e	.
=15	=15	=15	=15
2BB-	2.B-	1d	2g
2BB-	.	.	1f
.	4A	.	.
1C	1G	[1c	.
.	.	.	2e
=16	=16	=16	=16
2FF	4F	1c]	1f
.	4G	.	.
2F	4A	.	.
.	4B-	.	.
2E	2c	2r	1r
2D	[2d	4F	.
.	.	4G	.
=17	=17	=17	=17
2F	2d]	4A	0r
.	.	4B-	.
2E	1c	2c	.
1D	.	2d	.
.	2B-	[2f	.
=18	=18	=18	=18
1C	2A	2f]	1r
.	4G	2e	.
.	4A	.	.
1BB-	4B-	2d	2r
.	4c	.	.
.	2d	[2f	2b-
=19	=19	=19	=19
1C	1c	2f]	2a
.	.	2e	2g
2BB-	2d	2.f	2b-
2FF	2c	.	2a
.	.	4e	.
=20	=20	=20	=20
1BB-	2.B-	1d	4g
.	.	.	4f
.	.	.	1f
.	4A	.	.
1C	1G	1c	.
.	.	.	2e
=21	=21	=21	=21
0FF	0F	0c	0f
=22	=22	=22	=22
0r	1B-	0r	0r
.	2.G	.	.
.	4F	.	.
=23	=23	=23	=23
0r	2G	1r	0r
.	2A	.	.
.	4F	1f	.
.	4G	.	.
.	4A	.	.
.	4F	.	.
=24	=24	=24	=24
0r	4G	2.d	1b-
.	4F	.	.
.	4G	.	.
.	4A	4c	.
.	2B-	2d	2.g
.	[2c	2e	.
.	.	.	4f
=25	=25	=25	=25
0r	2c]	4c	2g
.	.	4d	.
.	2A	4e	2a
.	.	4c	.
.	2B-	4d	4f
.	.	4e	4g
.	2F	[2f	4a
.	.	.	4f
=26	=26	=26	=26
1r	2C	2f]	1g
.	1c	2e	.
1F	.	2f	1a
.	[2A	2c	.
=27	=27	=27	=27
2.D	4A]	1.d	1f
.	4G	.	.
.	2A	.	.
4C	.	.	.
2D	2B-	.	1r
2E	[2G	4c	.
.	.	4B-	.
=28	=28	=28	=28
4C	4G]	1c	0r
4D	4F	.	.
4E	4G	.	.
4C	4A	.	.
4D	2B-	1r	.
4E	.	.	.
[2F	2A	.	.
=29	=29	=29	=29
2F]	1G	2r	1r
2E	.	2c	.
1F	4F	4A	1cc
.	4G	4B-	.
.	4A	4c	.
.	4B-	4d	.
=30	=30	=30	=30
0r	2c	2e	2.a
.	1d	1f	.
.	.	.	4g
.	.	.	2a
.	2B-	2d	2b-
=31	=31	=31	=31
0r	2c	2e	4g
.	.	.	4a
.	2G	2.g	4b-
.	.	.	4g
.	1d	.	1a
.	.	4f	.
.	.	[2f	.
=32	=32	=32	=32
1r	2B-	2f]	1g
.	1c	2e	.
1F	.	1f	1a
.	[2A	.	.
=33	=33	=33	=33
2.D	4A]	0r	1.f
.	4G	.	.
.	2A	.	.
4C	.	.	.
2D	2B-	.	.
2E	[2G	.	2g
=34	=34	=34	=34
2.C	4G]	1r	1.e
.	4F	.	.
.	2G	.	.
4BB-	.	.	.
2C	2A	2r	.
2D	2F	2f	2d
=35	=35	=35	=35
2.BB-	4G	2.d	0r
.	4F	.	.
.	2.B-	.	.
4AA	.	4c	.
2BB-	.	2d	.
.	4A	.	.
2C	[2G	2e	.
=36	=36	=36	=36
2AA	4G]	2c	1r
.	4F	.	.
2BB-	1F	2d	.
1GG	.	1B-	1b-
.	4E	.	.
.	4D	.	.
=37	=37	=37	=37
1.C	2.E	0c	2.g
.	4D	.	4f
.	2E	.	2g
2AA	2F	.	2a
=38	=38	=38	=38
2BB-	2D	2r	4f
.	.	.	4g
2FF	1F	2c	4a
.	.	.	4f
1C	.	1c	2g
.	2E	.	[2a
=39	=39	=39	=39
0D	0F	2.A	4a]
.	.	.	4g
.	.	.	4f
.	.	4G	4e
.	.	2A	1f
.	.	2B	.
=40	=40	=40	=40
0C	0G	0c	0e
=41	=41	=41	=41
0r	0r	2r	1f
.	.	1f	.
.	.	.	1cc
.	.	4e	.
.	.	4d	.
=42	=42	=42	=42
0r	0r	2e	1cc
.	.	2f	.
.	.	2d	1dd
.	.	[2f	.
=43	=43	=43	=43
0r	0r	4f]	2cc
.	.	4e	.
.	.	1d	2b-
.	.	.	2a
.	.	4c	[2cc
.	.	4B-	.
=44	=44	=44	=44
0r	0r	2A	4cc]
.	.	.	4b-
.	.	2F	1a
.	.	1B-	.
.	.	.	2g
=45	=45	=45	=45
2r	1F	1.A	1a
1F	.	.	.
.	1c	.	1r
4E	.	4G	.
4D	.	4F	.
=46	=46	=46	=46
2E	1c	2G	0r
2F	.	2A	.
2D	1d	1F	.
[2F	.	.	.
=47	=47	=47	=47
4F]	2c	0r	2r
4E	.	.	.
1D	2B-	.	1f
.	2A	.	.
4C	[2c	.	4e
4BB-	.	.	4d
=48	=48	=48	=48
2AA	4c]	0r	2e
.	4B-	.	.
2FF	1A	.	2f
1BB-	.	.	2.d
.	2G	.	.
.	.	.	4e
=49	=49	=49	=49
1FF	2A	1F	4f
.	.	.	4g
.	1F	.	1a
1r	.	1c	.
.	4E	.	4g
.	4D	.	4f
=50	=50	=50	=50
0r	2E	1c	2g
.	2F	.	2a
.	2.D	1d	2f
.	.	.	[2a
.	4E	.	.
=51	=51	=51	=51
1r	2F	2c	2a]
.	2G	2B-	2g
1FF	2F	2A	2.a
.	2A	[2c	.
.	.	.	8g
.	.	.	8f
=52	=52	=52	=52
1C	2G	4c]	2e
.	.	4B-	.
.	1F	2A	2f
1C	.	2G	1g
.	2E	2c	.
=53	=53	=53	=53
1D	1F	2B-	2r
.	.	1A	2f
2C	2E	.	2cc
2BB-	2D	2G	2dd
=54	=54	=54	=54
1AA	1E	2A	2.cc
.	.	1c	.
.	.	.	4b-
1FF	2r	.	1a
.	2F	2d	.
=55	=55	=55	=55
1r	2c	2e	2g
.	2d	1f	2f
1C	1c	.	[1g
.	.	2e	.
=56	=56	=56	=56
1G	2B	2d	0g]
.	1c	2c	.
1G	.	2d	.
.	2B	[2g	.
=57	=57	=57	=57
1A	1c	2g]	2r
.	.	2f	1cc
1G	1r	2e	.
.	.	[2d	2b-
=58	=58	=58	=58
2F	1r	4d]	2a
.	.	4c	.
2E	.	1c	2.g
1D	1F	.	.
.	.	.	4f
.	.	2B-	[2f
=59	=59	=59	=59
1C	1c	2A	2f]
.	.	2G	2e
1FF	1c	1A	2f
.	.	.	2cc
=60	=60	=60	=60
0r	1d	2r	2b-
.	.	2f	1a
.	2c	2e	.
.	2B-	2d	2g
=61	=61	=61	=61
1FF	2A	2c	2f
.	2.c	2f	2a
1C	.	4e	2g
.	4B-	4d	.
.	2A	4c	[2f
.	.	4B-	.
=62	=62	=62	=62
1C	1G	2c	2f]
.	.	2c	2e
2.D	1F	2B-	[1f
.	.	2A	.
4C	.	.	.
=63	=63	=63	=63
2BB-	2r	2d	0f]
2AA	2c	2c	.
2BB-	2B-	[1d	.
2D	2A	.	.
=64	=64	=64	=64
1BB-	1B-	1d]	[0f
[1FF	[1A	[1c	.
=65	=65	=65	=65
1FF]	1A]	1c]	1f]
==	==	==	==
*-	*-	*-	*-
!!!CDT: 1525/^1526/-1594/2/2
!!!OCY: Italia
!!!AGN: Mass (Paraphrase)
!!!AST: renaissance, vocal
!!!ASW: Antiphon
!!!PWK: Masses, Book 12
!!!RNB: Cadence finals: C
!!!YOR: Le Opere Complete, v. 29, p. 1
!!!YOO: Rome, Italy: Fratelli Scalera
!!!END: 1992//
!!!EED: John Miller
!!!YEC: Copyright 2000, John Miller
!!!YEN: United States of America
!!!YEM: Rights to all derivative electronic formats reserved.
!!!YEM: Refer to licensing agreement for further details.
!!!YEM: This file must be accompanied by the licensing agreement.
!!!YEM: A copy of the licensing agreement may be found at http://www.music-cog.ohio-state.edu/HumdrumDatabases/Palestrina/license.txt
!!!EMD: converted to Humdrum by Bret Aarden
